src/assets/img/tech/webpack.svg

<svg xmlns="http://www.w3.org/2000/svg" width="256" height="256" viewBox="0 17 256 256"><path fill="#FFF" d="M128 27.994l103.303 58.434v116.908L128 261.77 24.697 203.336V86.428z"/><path fill="#8ED6FB" d="M212.864 199.281l-81.435 46.115v-35.863l50.755-27.95 30.68 17.698zm5.574-5.029V97.889l-29.782 17.191v61.981l29.782 17.191zm-175.614 5.029l81.434 46.076v-35.863l-50.755-27.911-30.679 17.698zm-5.574-5.029V97.889l29.783 17.191v61.981L37.25 194.252zm3.469-102.601l83.539-47.247V79.1l-53.522 29.431-.429.234-29.588-17.114zm174.211 0l-83.5-47.247V79.1l53.485 29.47.428.234 29.587-17.153z"/><path fill="#1C78C0" d="M124.258 201.347l-50.053-27.561v-54.535l50.053 28.885v53.211zm7.172 0l50.053-27.521v-54.575l-50.053 28.885v53.211zm-53.873-88.411l50.287-27.638 50.249 27.638-50.249 29.003-50.287-29.003z"/></svg>

<?xml version="1.0" encoding="utf-8"?>
<!-- Generator: Adobe Illustrator 16.0.3, SVG Export Plug-In . SVG Version: 6.00 Build 0)  -->
<!DOCTYPE svg PUBLIC "-//W3C//DTD SVG 1.1//EN" "http://www.w3.org/Graphics/SVG/1.1/DTD/svg11.dtd">
<svg version="1.1" id="Ebene_1" xmlns="http://www.w3.org/2000/svg" xmlns:xlink="http://www.w3.org/1999/xlink" x="0px" y="0px"
	 width="256px" height="256px" viewBox="0 17 256 256" enable-background="new 0 17 256 256" xml:space="preserve">
<g>
	<polygon fill="#FFFFFF" points="128,27.994 231.303,86.428 231.303,203.336 128,261.77 24.697,203.336 24.697,86.428 	"/>
	<path fill="#8ED6FB" d="M212.864,199.281l-81.435,46.115v-35.863l50.755-27.95L212.864,199.281z M218.438,194.252V97.889
		l-29.782,17.191v61.981L218.438,194.252z M42.824,199.281l81.434,46.076v-35.863l-50.755-27.911L42.824,199.281L42.824,199.281z
		 M37.25,194.252V97.889l29.783,17.191v61.981L37.25,194.252L37.25,194.252z M40.719,91.651l83.539-47.247V79.1l-53.522,29.431
		l-0.429,0.234L40.719,91.651L40.719,91.651z M214.93,91.651l-83.5-47.247V79.1l53.485,29.47l0.428,0.234L214.93,91.651
		L214.93,91.651z"/>
	<path fill="#1C78C0" d="M124.258,201.347l-50.053-27.561v-54.535l50.053,28.885V201.347L124.258,201.347z M131.43,201.347
		l50.053-27.521v-54.575l-50.053,28.885V201.347z M77.557,112.936l50.287-27.638l50.249,27.638l-50.249,29.003L77.557,112.936
		L77.557,112.936z"/>
</g>
</svg>
